X: 1
T: Valhalla
C: Sean Og Graham
R: reel
N: of the band Beorga
N: chords by Natalie Haas
S: Concord Slow Scottish session, 2019-5-17
Z: 2019 John Chambers <jc:trillian.mit.edu>
M: C|
L: 1/8
K: D
zz2 |\
"D"A3A B2AF | EFD2 D2dc | "G"B3d B2AF |\
"A"ABE2 E2DE | "D/F#"F2dc "G"B4 |
"D/F#"AFED "Bm"B,2"A-"A,2- | "A"A,B,DE F2ED | "G/A"D4- D ::\
EFA |\
"G"B2AF A3B | "D/G"def2 f2ed |
"D/G"fab2 bafd |\
"A/G"e6 ab |\
"Bm"f2ed "G"B2dB | "D/F#"AFED "Bm"B,2"A-"A,2- |\
"A"A,B,DE F2ED | "G/A"D4- D |]
